PortableApps/LibreOfficePortable/App/libreoffice/help/media/icon-themes/cmd/lc_actionmode.svg

<svg viewBox="0 0 24 24" xmlns="http://www.w3.org/2000/svg"><path d="m9 4v4c0 .554-.446 1-1 1h-4v9h1c.554 0 1 .446 1 1v1h12v-1c0-.554.446-1 1-1h1v-12h-1c-.554 0-1-.446-1-1v-1z" fill="#fff"/><path d="m20 2c-.554 0-1 .446-1 1v1c0 .554.446 1 1 1h1c.554 0 1-.446 1-1v-1c0-.554-.446-1-1-1zm-10.625 1c-.2072841 0-.375.1677159-.375.375v.25c0 .2072841.1677159.375.375.375h8.25c.207284 0 .375-.1677159.375-.375v-.25c0-.2072841-.167716-.375-.375-.375zm11.125 3c-.277 0-.5.223-.5.5v11c0 .277.223.5.5.5s.5-.223.5-.5v-11c0-.277-.223-.5-.5-.5zm-17 3c-.277 0-.5.223-.5.5v8c0 .277.223.5.5.5s.5-.223.5-.5v-8c0-.277-.223-.5-.5-.5zm-.5 10c-.554 0-1 .446-1 1v1c0 .554.446 1 1 1h1c.554 0 1-.446 1-1v-1c0-.554-.446-1-1-1zm17 0c-.554 0-1 .446-1 1v1c0 .554.446 1 1 1h1c.554 0 1-.446 1-1v-1c0-.554-.446-1-1-1zm-13.5 1c-.277 0-.5.223-.5.5s.223.5.5.5h11c.277 0 .5-.223.5-.5s-.223-.5-.5-.5z" fill="#808080"/><path d="m1.5 1c-.277 0-.5.223-.5.5v5c0 .277.223.5.5.5s.5-.223.5-.5v-4.5h4.5c.277 0 .5-.223.5-.5s-.223-.5-.5-.5zm5.984375 1c-.127164.00407-.2479966.05645-.3378906.1464844l-5 5c-.3147628.3150003-.0917942.8533279.3535156.8535156h5c.2761296-.0000309.4999691-.2238704.5-.5v-5c.0001053-.2823474-.2334144-.5087908-.515625-.5zm4.515625 3-2.625 5h-4.375l4 3.5-1 5.5 4-3 4 3-1-5.5 4-3.5h-4.375z" fill="#eac282"/></svg>

<svg viewBox="0 0 24 24" xmlns="http://www.w3.org/2000/svg">
  <path
     d="M 9 4 L 9 8 C 9 8.554 8.554 9 8 9 L 4 9 L 4 18 L 5 18 C 5.554 18 6 18.446 6 19 L 6 20 L 18 20 L 18 19 C 18 18.446 18.446 18 19 18 L 20 18 L 20 6 L 19 6 C 18.446 6 18 5.554 18 5 L 18 4 L 9 4 z "
     style="fill:#ffffff" />
  <path
     style="fill:#808080"
     d="M 20 2 C 19.446 2 19 2.446 19 3 L 19 4 C 19 4.554 19.446 5 20 5 L 21 5 C 21.554 5 22 4.554 22 4 L 22 3 C 22 2.446 21.554 2 21 2 L 20 2 z M 9.375 3 C 9.1677159 3 9 3.1677159 9 3.375 L 9 3.625 C 9 3.8322841 9.1677159 4 9.375 4 L 17.625 4 C 17.832284 4 18 3.8322841 18 3.625 L 18 3.375 C 18 3.1677159 17.832284 3 17.625 3 L 9.375 3 z M 20.5 6 C 20.223 6 20 6.223 20 6.5 L 20 17.5 C 20 17.777 20.223 18 20.5 18 C 20.777 18 21 17.777 21 17.5 L 21 6.5 C 21 6.223 20.777 6 20.5 6 z M 3.5 9 C 3.223 9 3 9.223 3 9.5 L 3 17.5 C 3 17.777 3.223 18 3.5 18 C 3.777 18 4 17.777 4 17.5 L 4 9.5 C 4 9.223 3.777 9 3.5 9 z M 3 19 C 2.446 19 2 19.446 2 20 L 2 21 C 2 21.554 2.446 22 3 22 L 4 22 C 4.554 22 5 21.554 5 21 L 5 20 C 5 19.446 4.554 19 4 19 L 3 19 z M 20 19 C 19.446 19 19 19.446 19 20 L 19 21 C 19 21.554 19.446 22 20 22 L 21 22 C 21.554 22 22 21.554 22 21 L 22 20 C 22 19.446 21.554 19 21 19 L 20 19 z M 6.5 20 C 6.223 20 6 20.223 6 20.5 C 6 20.777 6.223 21 6.5 21 L 17.5 21 C 17.777 21 18 20.777 18 20.5 C 18 20.223 17.777 20 17.5 20 L 6.5 20 z " />
  <path
     d="M 1.5 1 C 1.223 1 1 1.223 1 1.5 L 1 6.5 C 1 6.777 1.223 7 1.5 7 C 1.777 7 2 6.777 2 6.5 L 2 2 L 6.5 2 C 6.777 2 7 1.777 7 1.5 C 7 1.223 6.777 1 6.5 1 L 1.5 1 z M 7.484375 2 C 7.357211 2.00407 7.2363784 2.05645 7.1464844 2.1464844 L 2.1464844 7.1464844 C 1.8317216 7.4614847 2.0546902 7.9998123 2.5 8 L 7.5 8 C 7.7761296 7.9999691 7.9999691 7.7761296 8 7.5 L 8 2.5 C 8.0001053 2.2176526 7.7665856 1.9912092 7.484375 2 z M 12 5 L 9.375 10 L 5 10 L 9 13.5 L 8 19 L 12 16 L 16 19 L 15 13.5 L 19 10 L 14.625 10 L 12 5 z "
     style="fill:#eac282" />
</svg>
